X: 42011
T: The Langford Ceilidh
C: Hugh Ferguson
B: RSCDS 42-1
R: reel
Z: John Chambers <jc:trillian.mit.edu>
M: C|
L: 1/8
%--------------------
K: D
ag \
| "D"f2d2 d2ef | "G"gfed "A7"c2ag | "D"f2d2 "Bm"d2ef | "E7"edcB "A7"A2ag | "D"f2ed "Em"e2fg |
| "F#m"aAgA "Bm"f2ed | "A"eAfA "A7"gece | "D"d4 d2 :: cd | "A"e2A2 "A7"c2de | "D"d2F2 A2dc |
| "G"B2dB "D/F#"Adfa | "Em"e4 "A7"e2fg | "D"agfe "A7"fAeA | "F#m"fAeA "Bm"d2cd | "A"eAfA "A7"gece | "D"d4 d2 :|
%%center Book42/42011-Langford_Ceilidh-1.abc

%%sep 1 1 500
%%sep 1 1 500

